X:80
T:Embracing the Dragon 
R:waltz
C: 1996, 2010 T.H. Gillespie & L.E. McCullough 
M:3/4
L:1/8
K:Bm
z3 A de|:f4 e2|f4 e2|f6-|f4 c2|B4 c2|
[1 d4 e|c/2A/2-A3-A2-|A2z A de:|2 d4 c2|e6-|e4 dc|]
|:B3A Bc|d3e cB|A3E AB|c3d cA|B3A FA|
[1 c2dz zA|F6-|F4 dc:|[2 d2cz zA|B6-|B2z A de|]

